X:3
T: Alle eendjes
S: Samenspel Kinderdagverblijf VUB 4 oktober 2008
M: 4/4
L: 1/8
K: G
"G"G2 G2 "D"A2 A2| "G"d e d c B2 "D"A2|
"G" G G G "D"F E2 D2|"G" G G G "D"F E2 D2|
"G"G2 G2 "D"A2 A2| "G"d e d c B2 "D"A2|
"E"E4 "D"F4| "G"G> B d B G4||
W:
W: Al-le eend-jes zwem-men in het wa-ter
W: Fal-de-ral-de-rie-re Fal-de-ral-de-ra-re
W: Al-le eend-jes zwem-men in het wa-ter
W: fal-de fal-de-ral-de-ra\!!|
